admin/src/theme/img/safetyequipment/big/V.svg

<svg width="32" height="32" viewBox="0 0 32 32" xmlns="http://www.w3.org/2000/svg">
  <g fill="none" fill-rule="evenodd">
    <path d="M0 0h32v32H0z"/>
    <path d="M11.24 30.8533333h9.52V32h-9.52v-1.1466667ZM16 7.54666667c.92 0 1.6933333.32 2.3466667.97333333C19 9.17333333 19.32 9.94666667 19.32 10.8666667c0 .92-.32 1.7066666-.9733333 2.36-.6533334.6666666-1.4266667.9866666-2.3466667.9866666-.92 0-1.6933333-.3333333-2.3466667-.9866666C13 12.56 12.68 11.7866667 12.68 10.8666667c0-.92000003.32-1.69333337.9733333-2.3466667C14.3066667 7.86666667 15.08 7.54666667 16 7.54666667Zm3.24 23.30666663h-6.48L16 18.7866667l3.24 12.0666666Zm-3.8133333-16.68v4.5733334h1.1466666v-4.5733334h-1.1466666Zm0 6.7466667v-2.1333333H16L15.4266667 20.92Zm1.1466666-.04L16 18.7866667h.5733333V20.88Z" fill="#EC0E0E" fill-rule="nonzero"/>
  </g>
</svg>

<?xml version="1.0" encoding="UTF-8"?>
<svg width="32px" height="32px" viewBox="0 0 32 32" version="1.1" xmlns="http://www.w3.org/2000/svg" xmlns:xlink="http://www.w3.org/1999/xlink">
    <title>FCB4B5A4-5B08-428D-8573-F0DB42901DD2</title>
    <g id="Squat-laskuri" stroke="none" stroke-width="1" fill="none" fill-rule="evenodd">
        <g id="colors_and_typography" transform="translate(-1150.000000, -1050.000000)">
            <g id="turvalaite_ikonit" transform="translate(718.000000, 906.000000)">
                <g id="Asset-48" transform="translate(432.000000, 144.000000)">
                    <rect id="Rectangle" x="0" y="0" width="32" height="32"></rect>
                    <path d="M11.24,30.8533333 L20.76,30.8533333 L20.76,32 L11.24,32 L11.24,30.8533333 Z M16,7.54666667 C16.92,7.54666667 17.6933333,7.86666667 18.3466667,8.52 C19,9.17333333 19.32,9.94666667 19.32,10.8666667 C19.32,11.7866667 19,12.5733333 18.3466667,13.2266667 C17.6933333,13.8933333 16.92,14.2133333 16,14.2133333 C15.08,14.2133333 14.3066667,13.88 13.6533333,13.2266667 C13,12.56 12.68,11.7866667 12.68,10.8666667 C12.68,9.94666667 13,9.17333333 13.6533333,8.52 C14.3066667,7.86666667 15.08,7.54666667 16,7.54666667 Z M19.24,30.8533333 L12.76,30.8533333 L16,18.7866667 L19.24,30.8533333 Z M15.4266667,14.1733333 L15.4266667,18.7466667 L16.5733333,18.7466667 L16.5733333,14.1733333 L15.4266667,14.1733333 Z M15.4266667,20.92 L15.4266667,18.7866667 L16,18.7866667 L15.4266667,20.92 Z M16.5733333,20.88 L16,18.7866667 L16.5733333,18.7866667 L16.5733333,20.88 Z" id="Shape" fill="#EC0E0E" fill-rule="nonzero"></path>
                </g>
            </g>
        </g>
    </g>
</svg>
